svg/kitchenowl.svg

<svg xmlns="http://www.w3.org/2000/svg" width="512.001" height="512.001" fill="none" style="-webkit-print-color-adjust:exact"><defs><clipPath id="a" class="frame-clip"><rect width="512" height="512" rx="0" ry="0" style="fill:#20ac64;fill-opacity:0"/></clipPath></defs><g clip-path="url(#a)"><rect width="512" height="512" fill="none" class="frame-background" rx="0" ry="0" style="fill:#20ac64;fill-opacity:0"/><g class="frame-children"><rect width="512" height="512" rx="64" ry="64" style="fill:#20ac64;fill-opacity:1"/><rect width="512" height="512" class="stroke-shape" rx="64" ry="64" style="fill:none"/><g filter="url(#b)"><defs><filter id="b" width="1.151" height="1.151" x="-.062" y="-.062" color-interpolation-filters="sRGB" filterUnits="objectBoundingBox"><feFlood flood-opacity="0" result="BackgroundImageFix"/><feColorMatrix in="SourceAlpha" values="0 0 0 0 0 0 0 0 0 0 0 0 0 0 0 0 0 0 127 0"/><feOffset dx="4" dy="4"/><feGaussianBlur stdDeviation="2"/><feColorMatrix values="0 0 0 0 0 0 0 0 0 0 0 0 0 0 0 0 0 0 0.2 0"/><feBlend in2="BackgroundImageFix" result="filter_3a5758d0-81c7-11eb-b44b-9728589616a3"/><feBlend in="SourceGraphic" in2="filter_3a5758d0-81c7-11eb-b44b-9728589616a3" result="shape"/></filter></defs><svg xmlns="http://www.w3.org/2000/svg" width="436" height="436" x="38" y="38" class="svg-raw" preserveAspectRatio="none" style="isolation:isolate" viewBox="0 0 512 512"><path fill="#FFF" fill-rule="evenodd" d="M193.905 100.999c0-3.086-2.777-5.583-6.209-5.583-3.433 0-6.21 2.497-6.21 5.583 0 14.662 17.986 34.792 20.035 37.044 1.232 1.342 3.014 2.039 4.809 2.039 1.382 0 2.777-.414 3.935-1.265 2.65-1.957 3.032-5.474.861-7.862-6.657-7.295-17.221-21.876-17.221-29.956m130.399-5.583c-3.433 0-6.21 2.497-6.21 5.583 0 8.053-10.563 22.65-17.221 29.962-2.171 2.382-1.783 5.899.867 7.856 1.152.851 2.547 1.265 3.935 1.265 1.795 0 3.572-.697 4.803-2.039 2.05-2.252 20.035-22.382 20.035-37.044 0-3.086-2.777-5.583-6.209-5.583m-68.304 0c-3.432 0-6.21 2.497-6.21 5.583v33.5c0 3.086 2.778 5.583 6.21 5.583s6.21-2.497 6.21-5.583v-33.5c-.001-3.086-2.778-5.583-6.21-5.583m68.304-70.332c-3.763 0-7.695.447-11.779 1.129C298.849 11.878 278.604 2.75 256 2.75s-42.849 9.128-56.525 23.463c-4.084-.682-8.016-1.13-11.779-1.13-37.663.001-68.304 27.551-68.304 61.417 0 23.205 14.553 44.3 37.402 54.731l-.121 54.376c-.006 6.09 2.625 11.816 7.41 16.123 4.79 4.313 11.151 6.685 17.925 6.685h148.008c13.972 0 25.335-10.218 25.335-22.781v-54.485c22.764-10.458 37.257-31.521 37.257-54.649 0-33.866-30.641-61.416-68.304-61.416m18.628 170.551c0 6.401-5.797 11.614-12.916 11.614H182.008c-3.451 0-6.695-1.211-9.139-3.408-2.438-2.197-3.784-5.114-3.778-8.222l.033-3.87h173.808zm3.845-63.177q-.492.179-.928.431a5.84 5.84 0 0 0-1.905 1.679 5.2 5.2 0 0 0-.946 2.241 5 5 0 0 0-.066.938v42.835H169.139l.08-42.759a5 5 0 0 0-.06-.916 5.3 5.3 0 0 0-.983-2.312 5.9 5.9 0 0 0-1.844-1.62 7 7 0 0 0-.976-.453c-20.38-8.013-33.545-26.061-33.545-46.022 0-27.71 25.068-50.25 55.885-50.25 1.204 0 2.475.131 3.723.219-6.282 9.818-9.933 21.163-9.933 33.281 0 3.086 2.777 5.583 6.21 5.583s6.209-2.497 6.209-5.583c0-30.785 27.858-55.833 62.095-55.833s62.094 25.048 62.094 55.833c0 3.086 2.777 5.583 6.21 5.583s6.209-2.497 6.209-5.583c0-12.118-3.65-23.463-9.933-33.281 1.248-.088 2.519-.219 3.724-.219 30.817 0 55.885 22.541 55.885 50.25 0 19.89-13.11 37.915-33.412 45.958m73.194 199.91zc0 54.195-44.091 98.287-98.287 98.287a98.2 98.2 0 0 1-44.301-10.539 88 88 0 0 0 1.372-1.649c5.14-6.347 10.532-14.633 16.029-24.628a21.8 21.8 0 0 0 2.618-8.678 56.8 56.8 0 0 0 21.773 4.323c31.494 0 57.116-25.622 57.116-57.116s-25.622-57.116-57.116-57.116c-31.493 0-57.115 25.622-57.115 57.116 0 8.669 1.95 16.889 5.422 24.257a54 54 0 0 0-11.479-1.247c-3.814 0-7.645.417-11.479 1.247a56.76 56.76 0 0 0 5.422-24.257c0-31.494-25.622-57.116-57.116-57.116s-57.116 25.622-57.116 57.116 25.622 57.116 57.116 57.116a56.8 56.8 0 0 0 21.774-4.323 21.8 21.8 0 0 0 2.617 8.678c5.496 9.996 10.889 18.282 16.028 24.628a92 92 0 0 0 1.376 1.655 97.1 97.1 0 0 1-30.84 9.62 6.078 6.078 0 0 0 1.649 12.042 109.2 109.2 0 0 0 38.416-12.806c4.207 3.065 8.234 4.581 12.152 4.581 3.916 0 7.942-1.515 12.147-4.578 16.319 9.057 34.748 13.829 53.535 13.829 14.618 0 28.579-2.862 41.362-8.043 11.994 18.717 18.786 40.071 19.833 62.328H129.124c1.047-22.245 7.832-43.59 19.815-62.302a110 110 0 0 0 31.576 7.587 6.076 6.076 0 0 0 6.587-5.522 6.076 6.076 0 0 0-5.52-6.586c-50.215-4.421-89.549-47.426-89.549-97.905V200.392c23.484 21.565 54.277 33.687 86.559 33.687h105.065l60.236-.437a128 128 0 0 0 15.647-2.264 7 7 0 0 0 .462-.101 128.3 128.3 0 0 0 59.969-30.894zm-188.405 42.299c8.232-4.734 16.453-7.135 24.435-7.135s16.202 2.401 24.434 7.135c4.615 2.655 6.273 8.627 3.696 13.314-13.565 24.67-23.631 33.423-28.13 33.423s-14.565-8.753-28.131-33.423c-2.577-4.687-.919-10.659 3.696-13.314m-38.738 2.662c-24.791 0-44.961-20.17-44.961-44.961 0-24.792 20.17-44.961 44.961-44.961 24.792 0 44.961 20.17 44.961 44.961 0 24.792-20.169 44.961-44.961 44.961m235.327-197.664a6.08 6.08 0 0 0-6.724 1.748c-15.061 17.59-45.841 33.144-56.87 36.227-11.029 3.084-12.811 4.603-108.561 4.603s-97.674-1.539-108.561-4.574c-10.887-3.034-41.75-18.597-56.87-36.255a6.077 6.077 0 0 0-10.693 3.952v147.002c0 27.789 10.358 54.346 29.167 74.779a110.7 110.7 0 0 0 28.817 22.432c-13.779 22.058-21.034 47.362-21.034 73.593a6.077 6.077 0 0 0 6.077 6.078h266.194a6.076 6.076 0 0 0 6.077-6.078c0-26.247-7.263-51.56-21.055-73.625 34.513-18.698 58.005-55.246 58.005-97.179V185.366a6.08 6.08 0 0 0-3.969-5.701M274.213 332.368c0-24.792 20.17-44.961 44.96-44.961 24.792 0 44.962 20.17 44.962 44.961 0 24.792-20.17 44.961-44.962 44.961s-44.96-20.169-44.96-44.961m-81.385-10.606a6.077 6.077 0 0 0-6.077 6.078v9.056a6.077 6.077 0 0 0 6.077 6.077 6.077 6.077 0 0 0 6.078-6.077v-9.056a6.08 6.08 0 0 0-6.078-6.078m126.345 0a6.076 6.076 0 0 0-6.077 6.078v9.056a6.077 6.077 0 0 0 12.155 0v-9.056a6.076 6.076 0 0 0-6.078-6.078"/></svg></g></g></g><g class="stroke-shape"><rect width="512" height="512" class="frame-background" rx="0" ry="0" style="fill:none"/></g></svg>

<svg xmlns="http://www.w3.org/2000/svg" xmlns:xlink="http://www.w3.org/1999/xlink" id="screenshot-03be31a0-82c0-11eb-9f0d-51ab75e66321" width="512.001" height="512.001" fill="none" version="1.1" viewBox="0 0 512.001 512.001" style="-webkit-print-color-adjust:exact"><g id="shape-03be31a0-82c0-11eb-9f0d-51ab75e66321"><defs><clipPath id="frame-clip-03be31a0-82c0-11eb-9f0d-51ab75e66321-d502c3d4-3d54-8011-8001-67a0c9ba2cd9" class="frame-clip"><rect width="512" height="512" x="0" y="0" rx="0" ry="0" transform="matrix(1,-0.000002,0.000002,1,-0.000384,0.000442)" style="fill:#20ac64;fill-opacity:0"/></clipPath></defs><g clip-path="url(#frame-clip-03be31a0-82c0-11eb-9f0d-51ab75e66321-d502c3d4-3d54-8011-8001-67a0c9ba2cd9)"><clipPath id="frame-clip-03be31a0-82c0-11eb-9f0d-51ab75e66321-d502c3d4-3d54-8011-8001-67a0c9ba2cd9" class="frame-clip"><rect width="512" height="512" x="0" y="0" rx="0" ry="0" transform="matrix(1,-0.000002,0.000002,1,-0.000384,0.000442)" style="fill:#20ac64;fill-opacity:0"/></clipPath><g id="fills-03be31a0-82c0-11eb-9f0d-51ab75e66321"><rect width="512" height="512" x="0" y="0" class="frame-background" rx="0" ry="0" transform="matrix(1,-0.000002,0.000002,1,-0.000384,0.000442)" style="fill:#20ac64;fill-opacity:0"/></g><g class="frame-children"><g id="shape-0eb00340-82c0-11eb-9f0d-51ab75e66321"><g id="fills-0eb00340-82c0-11eb-9f0d-51ab75e66321"><rect width="512" height="512" x="0" y="0" rx="64" ry="64" transform="matrix(1,0,-0.000001,1,0.000335,-0.000004)" style="fill:#20ac64;fill-opacity:1"/></g><g id="strokes-0eb00340-82c0-11eb-9f0d-51ab75e66321"><g class="stroke-shape"><rect width="512" height="512" x="0" y="0" rx="64" ry="64" transform="matrix(1,0,-0.000001,1,0.000335,-0.000004)" style="fill:none"/></g></g></g><g id="shape-03c0a2a0-82c0-11eb-9f0d-51ab75e66321" filter="url(#filter_d502c3d4-3d54-8011-8001-67a0c9be93d9)"><defs><filter id="filter_d502c3d4-3d54-8011-8001-67a0c9be93d9" width="1.151" height="1.151" x="-.062" y="-.062" color-interpolation-filters="sRGB" filterUnits="objectBoundingBox"><feFlood flood-opacity="0" result="BackgroundImageFix"/><feColorMatrix in="SourceAlpha" type="matrix" values="0 0 0 0 0 0 0 0 0 0 0 0 0 0 0 0 0 0 127 0"/><feOffset dx="4" dy="4"/><feGaussianBlur stdDeviation="2"/><feColorMatrix type="matrix" values="0 0 0 0 0 0 0 0 0 0 0 0 0 0 0 0 0 0 0.2 0"/><feBlend in2="BackgroundImageFix" mode="normal" result="filter_3a5758d0-81c7-11eb-b44b-9728589616a3"/><feBlend in="SourceGraphic" in2="filter_3a5758d0-81c7-11eb-b44b-9728589616a3" mode="normal" result="shape"/></filter><filter id="filter_shadow_d502c3d4-3d54-8011-8001-67a0c9be93d9" width="1.151" height="1.151" x="-.062" y="-.062" color-interpolation-filters="sRGB" filterUnits="objectBoundingBox"><feFlood flood-opacity="0" result="BackgroundImageFix"/><feColorMatrix in="SourceAlpha" type="matrix" values="0 0 0 0 0 0 0 0 0 0 0 0 0 0 0 0 0 0 127 0"/><feOffset dx="4" dy="4"/><feGaussianBlur stdDeviation="2"/><feColorMatrix type="matrix" values="0 0 0 0 0 0 0 0 0 0 0 0 0 0 0 0 0 0 0.2 0"/><feBlend in2="BackgroundImageFix" mode="normal" result="filter_3a5758d0-81c7-11eb-b44b-9728589616a3"/><feBlend in="SourceGraphic" in2="filter_3a5758d0-81c7-11eb-b44b-9728589616a3" mode="normal" result="shape"/></filter></defs><g class="svg-raw" transform="matrix(1,0,0,1,0,0.000021)"><svg xmlns="http://www.w3.org/2000/svg" width="436" height="436" x="38" y="38" preserveAspectRatio="none" rx="0" ry="0" viewBox="0 0 512 512" style="isolation:isolate"><path fill="#FFF" fill-rule="evenodd" d="M193.905 100.999C193.905 97.913 191.128 95.416 187.696 95.416 184.263 95.416 181.486 97.913 181.486 100.999 181.486 115.661 199.472 135.791 201.521 138.043 202.753 139.385 204.535 140.082 206.33 140.082 207.712 140.082 209.107 139.668 210.265 138.817 212.915 136.86 213.297 133.343 211.126 130.955 204.469 123.66 193.905 109.079 193.905 100.999zM324.304 95.416C320.871 95.416 318.094 97.913 318.094 100.999 318.094 109.052 307.531 123.649 300.873 130.961 298.702 133.343 299.09 136.86 301.74 138.817 302.892 139.668 304.287 140.082 305.675 140.082 307.47 140.082 309.247 139.385 310.478 138.043 312.528 135.791 330.513 115.661 330.513 100.999 330.513 97.913 327.736 95.416 324.304 95.416zM256 95.416C252.568 95.416 249.79 97.913 249.79 100.999L249.79 134.499C249.79 137.585 252.568 140.082 256 140.082 259.432 140.082 262.21 137.585 262.21 134.499L262.21 100.999C262.209 97.913 259.432 95.416 256 95.416zM324.304 25.084C320.541 25.084 316.609 25.531 312.525 26.213 298.849 11.878 278.604 2.75 256 2.75 233.396 2.75 213.151 11.878 199.475 26.213 195.391 25.531 191.459 25.083 187.696 25.083 150.033 25.084 119.392 52.634 119.392 86.5 119.392 109.705 133.945 130.8 156.794 141.231L156.673 195.607C156.667 201.697 159.298 207.423 164.083 211.73 168.873 216.043 175.234 218.415 182.008 218.415L330.016 218.415C343.988 218.415 355.351 208.197 355.351 195.634L355.351 141.149C378.115 130.691 392.608 109.628 392.608 86.5 392.608 52.634 361.967 25.084 324.304 25.084zM342.932 195.635C342.932 202.036 337.135 207.249 330.016 207.249L182.008 207.249C178.557 207.249 175.313 206.038 172.869 203.841 170.431 201.644 169.085 198.727 169.091 195.619L169.124 191.749 342.932 191.749 342.932 195.635zM346.777 132.458C346.449 132.578 346.14 132.72 345.849 132.889A5.843 5.843 0 00343.944 134.568 5.205 5.205 0 00342.998 136.809 4.907 4.907 0 00342.932 137.747L342.932 180.582 169.139 180.582 169.219 137.823A5.191 5.191 0 00169.159 136.907 5.27 5.27 0 00168.176 134.595 5.899 5.899 0 00166.332 132.975 6.83 6.83 0 00165.356 132.522C144.976 124.509 131.811 106.461 131.811 86.5 131.811 58.79 156.879 36.25 187.696 36.25 188.9 36.25 190.171 36.381 191.419 36.469 185.137 46.287 181.486 57.632 181.486 69.75 181.486 72.836 184.263 75.333 187.696 75.333 191.128 75.333 193.905 72.836 193.905 69.75 193.905 38.965 221.763 13.917 256 13.917 290.237 13.917 318.094 38.965 318.094 69.75 318.094 72.836 320.871 75.333 324.304 75.333 327.736 75.333 330.513 72.836 330.513 69.75 330.513 57.632 326.863 46.287 320.58 36.469 321.828 36.381 323.099 36.25 324.304 36.25 355.121 36.25 380.189 58.791 380.189 86.5 380.189 106.39 367.079 124.415 346.777 132.458zM419.971 332.368L419.97 332.368C419.97 386.563 375.879 430.655 321.683 430.655A98.217 98.217 0 01277.382 420.116 88.19 88.19 0 00278.754 418.467C283.894 412.12 289.286 403.834 294.783 393.839A21.781 21.781 0 00297.401 385.161 56.798 56.798 0 00319.174 389.484C350.668 389.484 376.29 363.862 376.29 332.368 376.29 300.874 350.668 275.252 319.174 275.252 287.681 275.252 262.059 300.874 262.059 332.368 262.059 341.037 264.009 349.257 267.481 356.625A54.151 54.151 0 00256.002 355.378C252.188 355.378 248.357 355.795 244.523 356.625A56.755 56.755 0 00249.945 332.368C249.945 300.874 224.323 275.252 192.829 275.252 161.335 275.252 135.713 300.874 135.713 332.368 135.713 363.862 161.335 389.484 192.829 389.484A56.792 56.792 0 00214.603 385.161 21.79 21.79 0 00217.22 393.839C222.716 403.835 228.109 412.121 233.248 418.467A92.22 92.22 0 00234.624 420.122 97.129 97.129 0 01203.784 429.742 6.078 6.078 0 00205.433 441.784 109.18 109.18 0 00243.849 428.978C248.056 432.043 252.083 433.559 256.001 433.559 259.917 433.559 263.943 432.044 268.148 428.981 284.467 438.038 302.896 442.81 321.683 442.81 336.301 442.81 350.262 439.948 363.045 434.767 375.039 453.484 381.831 474.838 382.878 497.095L129.124 497.095C130.171 474.85 136.956 453.505 148.939 434.793A110.03 110.03 0 00180.515 442.38 6.076 6.076 0 00187.102 436.858 6.076 6.076 0 00181.582 430.272C131.367 425.851 92.033 382.846 92.033 332.367L92.033 200.392C115.517 221.957 146.31 234.079 178.592 234.079L283.657 234.079 343.893 233.642A127.876 127.876 0 00359.54 231.378 7.02 7.02 0 00360.002 231.277 128.3 128.3 0 00419.971 200.383L419.971 332.368zM231.566 374.667C239.798 369.933 248.019 367.532 256.001 367.532 263.983 367.532 272.203 369.933 280.435 374.667 285.05 377.322 286.708 383.294 284.131 387.981 270.566 412.651 260.5 421.404 256.001 421.404 251.503 421.404 241.436 412.651 227.87 387.981 225.293 383.294 226.951 377.322 231.566 374.667zM192.828 377.329C168.037 377.329 147.867 357.159 147.867 332.368 147.867 307.576 168.037 287.407 192.828 287.407 217.62 287.407 237.789 307.577 237.789 332.368 237.789 357.16 217.62 377.329 192.828 377.329zM428.155 179.665A6.077 6.077 0 00421.431 181.413C406.37 199.003 375.59 214.557 364.561 217.64 353.532 220.724 351.75 222.243 256 222.243 160.25 222.243 158.326 220.704 147.439 217.669 136.552 214.635 105.689 199.072 90.569 181.414A6.077 6.077 0 0079.876 185.366L79.876 332.368C79.876 360.157 90.234 386.714 109.043 407.147A110.683 110.683 0 00137.86 429.579C124.081 451.637 116.826 476.941 116.826 503.172A6.077 6.077 0 00122.903 509.25L389.097 509.25A6.076 6.076 0 00395.174 503.172C395.174 476.925 387.911 451.612 374.119 429.547 408.632 410.849 432.124 374.301 432.124 332.368L432.124 185.366A6.077 6.077 0 00428.155 179.665zM274.213 332.368C274.213 307.576 294.383 287.407 319.173 287.407 343.965 287.407 364.135 307.577 364.135 332.368 364.135 357.16 343.965 377.329 319.173 377.329 294.381 377.329 274.213 357.16 274.213 332.368zM192.828 321.762A6.077 6.077 0 00186.751 327.84L186.751 336.896A6.077 6.077 0 00192.828 342.973 6.077 6.077 0 00198.906 336.896L198.906 327.84A6.078 6.078 0 00192.828 321.762zM319.173 321.762A6.076 6.076 0 00313.096 327.84L313.096 336.896A6.077 6.077 0 00325.251 336.896L325.251 327.84A6.076 6.076 0 00319.173 321.762z" rx="0" ry="0"/></svg></g></g></g></g><g id="strokes-03be31a0-82c0-11eb-9f0d-51ab75e66321"><g class="stroke-shape"><rect width="512" height="512" x="0" y="0" class="frame-background" rx="0" ry="0" transform="matrix(1,-0.000002,0.000002,1,-0.000384,0.000442)" style="fill:none"/></g></g></g></svg>
